X: 17729
T: Home To Bally Cashen
R: jig
M: 6/8
K: Dmajor
|:E|~F3 ~G3|FED EFG|Adf ecA|~G3 EFG|
FAd GBd|FED EFG|Adf ecA|GFE D2:|
|:e|~f3 d2B|Adf afd|e2f gfe|efd cBA|
~f3 d2B|Adf afd|e2f gfe|dfe d2:|

